svg/u1f58d.svg

<svg viewBox="0 0 128 128" xmlns="http://www.w3.org/2000/svg">
  <g>
    <path d="M33.37,74.96L22.16,86.18L4.32,116.43c-0.5,0.9-0.59,2.66,2.13,5.38c2.72,2.72,4.18,2.34,5.09,1.84 l30.25-17.84L53,94.59L33.37,74.96z" fill="#C62828"/>
    <path d="M18.47,106.52c-0.17,0.23-9.28,10.85-9.8,11.31c-0.96,0.86-2.25,0.11-1.54-1.54 c0.53-1.23,3.2-5.91,5.17-9.18c1.15-1.91,3.77-6.59,6.35-5.29C20.85,102.94,19.47,105.2,18.47,106.52z" fill="#F44336"/>
    <path d="M21.21,87.9l-3.56,5.91c0,0,3.18-1.79,7.78,4.94c3.58,5.23,3.78,14.47,3.78,14.47l10.56-6.23 C39.64,106.56,21.21,87.9,21.21,87.9z" fill="#AD1414"/>
    <path d="M19.7,82.94c-1.55,1.55-0.9,5.82,0.65,7.38l17.27,17.94c1.55,1.55,5.84,1.55,7.4,0l76.21-76.21 L95.91,6.73" fill="#C62828"/>
    <path d="M21.78,80.86c0,0,3.46,4.7,11.41,12.62c10.31,10.27,13.91,12.7,13.91,12.7l74.13-74.13L95.91,6.73" fill="#EF5350"/>
    <path d="M93.86,8.78c0,0,5.6,2.21,13.64,9.78c9.35,8.79,11.67,15.54,11.67,15.54l4.25-4.25 c0.78-0.78,2.06-8.42-7.42-17.9s-17.12-8.19-17.9-7.42" fill="#C62828"/>
    <path d="M110.22,11.33c0.32,0.56,0.58,1.19,0.57,1.84c-0.01,0.65-0.35,1.32-0.94,1.58 c-0.96,0.41-1.97-0.35-2.83-0.94c-1.81-1.24-4.79-2.97-6.71-4.03c-2.42-1.35-0.63-4.79,2.02-4.18 C105.3,6.28,108.73,8.7,110.22,11.33z" fill="#F44336"/>
    <path d="M52.57,100.71l5.73-5.73C46.26,85.05,33.25,69.4,33.25,69.4l-5.76,5.76 C31.43,80.82,41,90.92,52.57,100.71z" fill="#424242"/>
    <path d="M89.75,12.9l-5.76,5.76c12.94,8.79,21.51,19.26,25.63,25l5.74-5.74 C110.78,31.68,102.29,21.68,89.75,12.9z" fill="#424242"/>
    <path d="M97,78.69c0-0.06,0-0.12,0-0.19" fill="none"/>
  </g>
</svg>

<svg viewBox="0 0 128 128" xmlns="http://www.w3.org/2000/svg">
  <defs/>
  <path d="M33.37,74.96 L22.16,86.18 L4.32,116.43 C3.82,117.33 3.73,119.09 6.45,121.81 C9.17,124.53 10.63,124.15 11.54,123.65 L41.79,105.81 L53,94.59 L33.37,74.96 Z" fill="#C62828"/>
  <path d="M18.47,106.52 C18.3,106.75 9.19,117.37 8.67,117.83 C7.71,118.69 6.42,117.94 7.13,116.29 C7.66,115.06 10.33,110.38 12.3,107.11 C13.45,105.2 16.07,100.52 18.65,101.82 C20.85,102.94 19.47,105.2 18.47,106.52 Z" fill="#F44336"/>
  <path d="M21.21,87.9 L17.65,93.81 C17.65,93.81 20.83,92.02 25.43,98.75 C29.01,103.98 29.21,113.22 29.21,113.22 L39.77,106.99 C39.64,106.56 21.21,87.9 21.21,87.9 Z" fill="#AD1414"/>
  <path d="M19.7,82.94 C18.15,84.49 18.8,88.76 20.35,90.32 L37.62,108.26 C39.17,109.81 43.46,109.81 45.02,108.26 L121.23,32.05 L95.91,6.73" fill="#C62828"/>
  <path d="M21.78,80.86 C21.78,80.86 25.24,85.56 33.19,93.48 C43.5,103.75 47.1,106.18 47.1,106.18 L121.23,32.05 L95.91,6.73" fill="#EF5350"/>
  <path d="M93.86,8.78 C93.86,8.78 99.46,10.99 107.5,18.56 C116.85,27.35 119.17,34.1 119.17,34.1 L123.42,29.85 C124.2,29.07 125.48,21.43 116,11.95 C106.52,2.47 98.88,3.76 98.1,4.53" fill="#C62828"/>
  <path d="M110.22,11.33 C110.54,11.89 110.8,12.52 110.79,13.17 C110.78,13.82 110.44,14.49 109.85,14.75 C108.89,15.16 107.88,14.4 107.02,13.81 C105.21,12.57 102.23,10.84 100.31,9.78 C97.89,8.43 99.68,4.99 102.33,5.6 C105.3,6.28 108.73,8.7 110.22,11.33 Z" fill="#F44336"/>
  <path d="M52.57,100.71 L58.3,94.98 C46.26,85.05 33.25,69.4 33.25,69.4 L27.49,75.16 C31.43,80.82 41,90.92 52.57,100.71 Z" fill="#424242"/>
  <path d="M89.75,12.9 L83.99,18.66 C96.93,27.45 105.5,37.92 109.62,43.66 L115.36,37.92 C110.78,31.68 102.29,21.68 89.75,12.9 Z" fill="#424242"/>
</svg>
